packages/core/src/svgs/wallets/mono/lit.svg

<svg width="24" height="24" viewBox="0 0 24 24" fill="none" xmlns="http://www.w3.org/2000/svg">
<path d="M8.59512 9.21773C8.59512 9.21773 8.57634 9.56649 7.8855 10.7041C7.08535 12.0224 7.01021 13.5656 7.82743 14.8538C9.55026 17.5697 14.226 17.5184 15.9595 14.8555C16.6299 13.8255 16.822 12.6436 16.5932 11.443C16.5932 11.443 16.0385 8.93613 14.1445 7.35543C14.1744 7.38005 14.2478 7.71546 14.2619 7.85855C14.305 8.29826 14.2627 8.75924 14.112 9.17768C14.0014 9.48514 13.8482 9.7513 13.589 9.95655C13.589 9.8848 13.5706 9.75631 13.5702 9.71334C13.5578 8.83768 13.2111 8.02668 12.6462 7.34584C12.1526 6.75177 11.4759 6.34628 10.7633 6.04799C10.7812 6.10807 10.8145 6.35712 10.8192 6.40635C10.8559 6.81977 10.8628 7.39882 10.8073 7.81183C10.7518 8.22484 10.6565 8.4497 10.5272 8.83684C10.3312 9.42381 10.0643 9.85893 9.72617 10.3808C9.66383 10.4768 9.47767 10.74 9.37819 10.8731C9.37819 10.8731 9.20697 9.81513 8.59555 9.21773H8.59512Z" fill="white"/>
<path fill-rule="evenodd" clip-rule="evenodd" d="M20.2098 7.00816L12.3139 2.54829C12.1197 2.43856 11.8803 2.43856 11.6861 2.54829L3.79025 7.00816C3.59598 7.11789 3.47631 7.32067 3.47631 7.54013V16.4599C3.47631 16.6793 3.59598 16.8821 3.79025 16.9918L11.6861 21.4517C11.8803 21.5614 12.1197 21.5614 12.3139 21.4517L20.2098 16.9918C20.404 16.8821 20.5237 16.6793 20.5237 16.4599V7.54013C20.5237 7.32067 20.404 7.11789 20.2098 7.00816ZM12.5521 2.14473C12.2105 1.95176 11.7895 1.95176 11.4479 2.14473L3.55209 6.6046C3.21046 6.79757 3 7.15419 3 7.54013V16.4599C3 16.8458 3.21046 17.2024 3.55209 17.3954L11.4479 21.8553C11.7895 22.0482 12.2105 22.0482 12.5521 21.8553L20.4479 17.3954C20.7895 17.2024 21 16.8458 21 16.4599V7.54013C21 7.15419 20.7895 6.79757 20.4479 6.6046L12.5521 2.14473Z" fill="white"/>
</svg>

<svg xmlns="http://www.w3.org/2000/svg" width="24" height="24" fill="none" viewBox="0 0 24 24">
    <path fill="#fff" d="M8.595 9.218s-.019.348-.71 1.486c-.8 1.318-.875 2.862-.058 4.15 1.723 2.716 6.399 2.664 8.133.002.67-1.03.862-2.212.633-3.413 0 0-.555-2.507-2.448-4.088.03.025.103.36.117.504.043.44 0 .9-.15 1.319-.11.307-.264.573-.523.779 0-.072-.018-.2-.019-.244-.012-.875-.359-1.686-.924-2.367-.493-.594-1.17-1-1.883-1.298.018.06.052.31.056.358a7 7 0 0 1-.012 1.406c-.055.413-.15.638-.28 1.025-.196.587-.463 1.022-.8 1.544-.063.096-.25.359-.349.492 0 0-.171-1.058-.782-1.655"/>
    <path fill="#fff" fill-rule="evenodd" d="m20.21 7.008-7.896-4.46a.64.64 0 0 0-.628 0L3.79 7.008a.61.61 0 0 0-.314.532v8.92c0 .22.12.422.314.532l7.896 4.46a.64.64 0 0 0 .628 0l7.896-4.46a.61.61 0 0 0 .314-.532V7.54c0-.22-.12-.422-.314-.532m-7.658-4.863a1.13 1.13 0 0 0-1.104 0l-7.896 4.46C3.21 6.798 3 7.155 3 7.54v8.92c0 .386.21.742.552.935l7.896 4.46c.341.193.762.193 1.104 0l7.896-4.46c.341-.193.552-.55.552-.935V7.54c0-.386-.21-.742-.552-.935z" clip-rule="evenodd"/>
</svg>
